**kern	**kern
*staff2	*staff1
*clefF4	*clefG2
*k[]	*k[]
*M3/4	*M3/4
=-	=-
16GLL	2dd
16d	.
16B	.
16dJJ	.
16GLL	.
16d	.
16B	.
16dJJ	.
16GLL	(16cc'LL
16d	16b'
16B	16a'
16dJJ	16g'JJ)
=160	=160
16GLL	(4ee
16e	.
16c	.
16eJJ	.
16GLL	8cc)
16e	.
16c	16r
16eJJ	16cc'
16GLL	(16eeLL
16e	16cc)
16c	(16ee
16eJJ	16ccJJ)
=161	=161
16GLL	(4ff
16f	.
16d	.
16fJJ	.
16GLL	8dd)
16f	.
16d	16r
16fJJ	16dd'
16GLL	(16ffLL
16f	16dd)
16d	(16ff
16fJJ	16ddJJ)
*clefG2	*
=162	=162
16cLL	(4gg
16g	.
16e	.
16gJJ	.
16cLL	16eeLL)
16g	(16gg
16e	16aa
16gJJ	16ggJJ
16cLL	16cccLL
16g	16gg
16e	16aa
16gJJ	16ggJJ)
=163	=163
16cLL	(4gg
16g	.
16e	.
16gJJ	.
16cLL	16eeLL)
16g	(16gg
16e	16aa
16gJJ	16ggJJ
16cLL	16cccLL
16g	16gg
16e	16aa
16gJJ	16ggJJ)
=164	=164
16cLL	(16ggLL
16g	16ee)
16e	16aa'
16gJJ	16gg'JJ
16BLL	(16ffLL
16g	16dd)
16d	16gg'
16gJJ	16ff'JJ
16cLL	(16eeLL
16g	16cc)
16e	16ff'
16gJJ	16ee'JJ
*clefF4	*
=165	=165
16GLL	(16eeLL
16d	16dd)
16B	16g'
16dJJ	16a'JJ
16GLL	16b'LL
16d	16cc'
16B	16dd'
16dJJ	16ee'JJ
16FLL	16ff'LL
16d	16gg'
16G	16aa'
16dJJ	16bb'JJ
=166	=166
16ELL	(16cccLL
16c	16eee)
16G	16ee'
16cJJ	16gg'JJ
16DLL	(16ffLL
16B	16ddd)
16G	16dd'
16BJJ	16ff'JJ
16CLL	(16eeLL
16c	16ccc)
16G	16cc'
16cJJ	16ee'JJ
=167	=167
4G 4B	(16cc#LL
.	16dd
.	16ee
.	16ddJJ)
4r	(16a#LL
.	16b
.	16cc
.	16bJJ)
4r	(16f#LL
.	16g
.	16a
.	16gJJ)
=168	=168
*-	*-
